build/fonts/cisco/isdnswitch.svg

<?xml version="1.0" encoding="UTF-8" standalone="no"?>
<svg
   xmlns:dc="http://purl.org/dc/elements/1.1/"
   xmlns:cc="http://creativecommons.org/ns#"
   xmlns:rdf="http://www.w3.org/1999/02/22-rdf-syntax-ns#"
   xmlns:svg="http://www.w3.org/2000/svg"
   xmlns="http://www.w3.org/2000/svg"
   viewBox="0 0 35 37.5"
   height="37.5"
   width="35"
   xml:space="preserve"
   version="1.1"
   id="svg2"><metadata
     id="metadata8"><rdf:RDF><cc:Work
         rdf:about=""><dc:format>image/svg+xml</dc:format><dc:type
           rdf:resource="http://purl.org/dc/dcmitype/StillImage" /></cc:Work></rdf:RDF></metadata><defs
     id="defs6"><clipPath
       id="clipPath18"
       clipPathUnits="userSpaceOnUse"><path
         id="path20"
         d="M 0,10 0,296 280,296 280,10 0,10 Z" /></clipPath></defs><g
     transform="matrix(1.25,0,0,-1.25,0,37.5)"
     id="g10"><g
       transform="scale(0.1,0.1)"
       id="g12"><g
         id="g14"><g
           clip-path="url(#clipPath18)"
           id="g16"><path
             id="path22"
             style="fill:#087fbf;fill-opacity:1;fill-rule:nonzero;stroke:none"
             d="m 5.30859,14.5703 226.762,0 0,230.742 -226.762,0 0,-230.742 z" /><path
             id="path24"
             style="fill:none;stroke:#ffffff;stroke-width:4;stroke-linecap:butt;stroke-linejoin:miter;stroke-miterlimit:4;stroke-dasharray:none;stroke-opacity:1"
             d="m 5.30859,14.5703 226.762,0 0,230.742 -226.762,0 0,-230.742 z" /><path
             id="path26"
             style="fill:#ffffff;fill-opacity:1;fill-rule:nonzero;stroke:none"
             d="m 41.3281,166.922 33.9024,33.898 -36.711,4.141 2.8086,-38.039" /><path
             id="path28"
             style="fill:#ffffff;fill-opacity:1;fill-rule:nonzero;stroke:none"
             d="M 189.059,88.4023 155.16,54.4922 191.84,50.3516 189.059,88.4023" /><path
             id="path30"
             style="fill:#087fbf;fill-opacity:1;fill-rule:nonzero;stroke:none"
             d="m 278.012,291.25 -45.942,-45.859 -226.99187,0 49.02347,45.859 223.9104,0" /><path
             id="path32"
             style="fill:none;stroke:#ffffff;stroke-width:4;stroke-linecap:butt;stroke-linejoin:miter;stroke-miterlimit:4;stroke-dasharray:none;stroke-opacity:1"
             d="m 278.012,291.25 -45.942,-45.859 -226.99187,0 49.02347,45.859 223.9104,0 z" /><path
             id="path34"
             style="fill:#087fbf;fill-opacity:1;fill-rule:nonzero;stroke:none"
             d="m 278.281,70.1602 0,220.9418 -46.211,-45.942 0,-229.6873 46.211,54.6875" /><path
             id="path36"
             style="fill:none;stroke:#ffffff;stroke-width:4;stroke-linecap:butt;stroke-linejoin:miter;stroke-miterlimit:4;stroke-dasharray:none;stroke-opacity:1"
             d="m 278.281,70.1602 0,220.9418 -46.211,-45.942 0,-229.6873 46.211,54.6875 z" /><path
             id="path38"
             style="fill:none;stroke:#ffffff;stroke-width:14.25;stroke-linecap:butt;stroke-linejoin:miter;stroke-miterlimit:3.8599999;stroke-dasharray:32.001, 12.8;stroke-dashoffset:0;stroke-opacity:1"
             d="M 56.4102,187.031 175.469,67.9297" /></g></g></g></g></svg>

<svg xmlns="http://www.w3.org/2000/svg" viewBox="0 0 35 37.5" height="37.5" width="35"><defs><clipPath id="a"><path d="M0 10v286h280V10H0z"/></clipPath></defs><g clip-path="url(#a)" transform="matrix(.13 0 0 -.13 0 37.5)"><path d="M5.309 14.57H232.07v230.742H5.309V14.57z" fill="#087fbf"/><path d="M5.309 14.57H232.07v230.742H5.309V14.57z" fill="none" stroke="#fff" stroke-width="4"/><path d="M41.328 166.922L75.23 200.82l-36.71 4.141 2.808-38.039M189.059 88.402l-33.899-33.91 36.68-4.14-2.781 38.05" fill="#fff"/><path d="M278.012 291.25l-45.942-45.859H5.078l49.024 45.859h223.91" fill="#087fbf"/><path d="M278.012 291.25l-45.942-45.859H5.078l49.024 45.859h223.91z" fill="none" stroke="#fff" stroke-width="4"/><path d="M278.281 70.16v220.942L232.07 245.16V15.473l46.211 54.687" fill="#087fbf"/><path d="M278.281 70.16v220.942L232.07 245.16V15.473l46.211 54.687z" fill="none" stroke="#fff" stroke-width="4"/><path d="M56.41 187.031L175.47 67.93" fill="none" stroke="#fff" stroke-width="14.25" stroke-miterlimit="3.86" stroke-dasharray="32.001,12.8"/></g></svg>
